images/logo.svg

<svg width="150" height="41" viewBox="0 0 150 41" fill="none" xmlns="http://www.w3.org/2000/svg">
<g filter="url(#filter0_d_28212_210)">
<path d="M4 6.73727V32.6084H7.75838V13.8746H8.00127L15.7226 32.5705H18.8418L26.5631 13.8872H26.806V32.6084H30.5643V6.73727H25.7705L17.4356 26.848H17.1288L8.79385 6.73727H4Z" fill="white"/>
<path d="M45.1313 33C49.4138 33 52.4435 30.9157 53.3128 27.7576L49.695 27.1133C49.0047 28.945 47.3428 29.8798 45.1696 29.8798C41.897 29.8798 39.6982 27.7828 39.596 24.0436H53.5557V22.7046C53.5557 15.6936 49.3115 12.9524 44.8628 12.9524C39.3914 12.9524 35.7864 17.0706 35.7864 23.033C35.7864 29.0587 39.3403 33 45.1313 33ZM39.6088 21.214C39.7622 18.4601 41.782 16.0726 44.8884 16.0726C47.8542 16.0726 49.7973 18.2454 49.8101 21.214H39.6088Z" fill="white"/>
<path d="M72.5106 17.9422C71.718 14.9231 69.3275 12.9524 65.0833 12.9524C60.6474 12.9524 57.5026 15.2641 57.5026 18.7001C57.5026 21.454 59.19 23.2857 62.8717 24.0942L66.1955 24.8142C68.0874 25.2311 68.9695 26.0648 68.9695 27.2775C68.9695 28.7808 67.346 29.9556 64.8404 29.9556C62.5521 29.9556 61.082 28.9829 60.6218 27.0754L56.9273 27.6312C57.5665 31.0672 60.4556 33 64.866 33C69.6087 33 72.8941 30.5114 72.8941 26.9996C72.8941 24.2584 71.1299 22.5657 67.525 21.7445L64.4058 21.0371C62.2453 20.5318 61.3121 19.8118 61.3249 18.498C61.3121 17.0074 62.9484 15.9463 65.1216 15.9463C67.4994 15.9463 68.5988 17.2474 69.0462 18.5486L72.5106 17.9422Z" fill="white"/>
<path d="M86.2625 13.2051H82.2357V8.55633H78.4134V13.2051H75.5371V16.2368H78.4134V27.6944C78.4006 31.2188 81.1235 32.9242 84.1405 32.861C85.3549 32.8484 86.1731 32.621 86.6205 32.4568L85.9302 29.3366C85.6745 29.3871 85.2015 29.5008 84.5879 29.5008C83.3479 29.5008 82.2357 29.0966 82.2357 26.9112V16.2368H86.2625V13.2051Z" fill="white"/>
<path d="M98.5508 33C104.086 33 107.704 28.9955 107.704 22.9951C107.704 16.9569 104.086 12.9524 98.5508 12.9524C93.0155 12.9524 89.3977 16.9569 89.3977 22.9951C89.3977 28.9955 93.0155 33 98.5508 33ZM98.5636 29.8293C94.9458 29.8293 93.2584 26.7091 93.2584 22.9825C93.2584 19.2686 94.9458 16.1105 98.5636 16.1105C102.156 16.1105 103.843 19.2686 103.843 22.9825C103.843 26.7091 102.156 29.8293 98.5636 29.8293Z" fill="white"/>
<path d="M111.176 8.8932H112.233V5.52456H114.142C114.219 5.52456 114.291 5.52456 114.364 5.52035L116.205 8.8932H117.432L115.459 5.33087C116.571 4.95611 117.091 4.05921 117.091 2.91387C117.091 1.38956 116.171 0.269491 114.125 0.269491H111.176V8.8932ZM112.233 4.58135V1.19587H114.091C115.506 1.19587 116.051 1.87801 116.051 2.91387C116.051 3.94973 115.506 4.58135 114.108 4.58135H112.233Z" fill="white"/>
<path d="M122.84 6.24882C122.84 7.46153 121.903 8.01735 121.153 8.01735C120.318 8.01735 119.721 7.411 119.721 6.46778V2.42542H118.716V6.53515C118.716 8.18579 119.602 8.97742 120.829 8.97742C121.818 8.97742 122.465 8.45528 122.772 7.79839H122.84V8.8932H123.846V2.42542H122.84V6.24882Z" fill="white"/>
<path d="M130.324 3.87393C130.009 2.95598 129.301 2.3412 128.006 2.3412C126.625 2.3412 125.603 3.11599 125.603 4.21079C125.603 5.10348 126.14 5.70142 127.341 5.97933L128.432 6.23198C129.093 6.38357 129.404 6.69516 129.404 7.14151C129.404 7.69733 128.807 8.1521 127.87 8.1521C127.047 8.1521 126.532 7.8026 126.353 7.10782L125.398 7.34363C125.633 8.44264 126.549 9.02795 127.887 9.02795C129.408 9.02795 130.443 8.20684 130.443 7.09098C130.443 6.18987 129.872 5.62141 128.705 5.33929L127.733 5.10348C126.958 4.914 126.608 4.65714 126.608 4.16027C126.608 3.60444 127.205 3.2002 128.006 3.2002C128.884 3.2002 129.246 3.68023 129.421 4.12658L130.324 3.87393Z" fill="white"/>
<path d="M136.593 3.87393C136.278 2.95598 135.571 2.3412 134.275 2.3412C132.895 2.3412 131.872 3.11599 131.872 4.21079C131.872 5.10348 132.409 5.70142 133.611 5.97933L134.701 6.23198C135.362 6.38357 135.673 6.69516 135.673 7.14151C135.673 7.69733 135.076 8.1521 134.139 8.1521C133.317 8.1521 132.801 7.8026 132.622 7.10782L131.667 7.34363C131.902 8.44264 132.818 9.02795 134.156 9.02795C135.677 9.02795 136.713 8.20684 136.713 7.09098C136.713 6.18987 136.142 5.62141 134.974 5.33929L134.003 5.10348C133.227 4.914 132.878 4.65714 132.878 4.16027C132.878 3.60444 133.474 3.2002 134.275 3.2002C135.153 3.2002 135.515 3.68023 135.69 4.12658L136.593 3.87393Z" fill="white"/>
<path d="M138.227 8.8932H139.232V2.42542H138.227V8.8932ZM138.738 1.34745C139.13 1.34745 139.454 1.04428 139.454 0.673727C139.454 0.303177 139.13 0 138.738 0C138.346 0 138.022 0.303177 138.022 0.673727C138.022 1.04428 138.346 1.34745 138.738 1.34745Z" fill="white"/>
<path d="M143 9.04479C144.142 9.04479 144.739 8.43843 144.943 8.01735H144.994V8.8932H146V4.63187C146 2.57701 144.415 2.3412 143.58 2.3412C142.591 2.3412 141.466 2.67807 140.955 3.85709L141.909 4.19395C142.131 3.72234 142.655 3.21705 143.614 3.21705C144.538 3.21705 144.994 3.70129 144.994 4.53082V4.5645C144.994 5.04453 144.5 5.00242 143.307 5.15401C142.092 5.30981 140.767 5.57509 140.767 7.05729C140.767 8.32053 141.756 9.04479 143 9.04479ZM143.154 8.1521C142.352 8.1521 141.773 7.79839 141.773 7.10782C141.773 6.34988 142.472 6.11407 143.256 6.01302C143.682 5.96249 144.824 5.84458 144.994 5.64247V6.552C144.994 7.36047 144.347 8.1521 143.154 8.1521Z" fill="white"/>
</g>
<defs>
<filter id="filter0_d_28212_210" x="0" y="0" width="150" height="41" filterUnits="userSpaceOnUse" color-interpolation-filters="sRGB">
<feFlood flood-opacity="0" result="BackgroundImageFix"/>
<feColorMatrix in="SourceAlpha" type="matrix" values="0 0 0 0 0 0 0 0 0 0 0 0 0 0 0 0 0 0 127 0" result="hardAlpha"/>
<feOffset dy="4"/>
<feGaussianBlur stdDeviation="2"/>
<feComposite in2="hardAlpha" operator="out"/>
<feColorMatrix type="matrix" values="0 0 0 0 0 0 0 0 0 0 0 0 0 0 0 0 0 0 0.25 0"/>
<feBlend mode="normal" in2="BackgroundImageFix" result="effect1_dropShadow_28212_210"/>
<feBlend mode="normal" in="SourceGraphic" in2="effect1_dropShadow_28212_210" result="shape"/>
</filter>
</defs>
</svg>

<svg width="150" height="41" fill="none" xmlns="http://www.w3.org/2000/svg"><g filter="url(#a)" fill="#fff"><path d="M4 6.737v25.871h3.758V13.875h.243l7.722 18.696h3.119l7.721-18.684h.243v18.721h3.758V6.738H25.77l-8.334 20.11h-.307L8.794 6.738H4ZM45.131 33c4.283 0 7.313-2.084 8.182-5.242l-3.618-.645c-.69 1.832-2.352 2.767-4.525 2.767-3.273 0-5.472-2.097-5.574-5.836h13.96v-1.34c0-7.01-4.244-9.752-8.693-9.752-5.472 0-9.077 4.119-9.077 10.081 0 6.026 3.554 9.967 9.345 9.967ZM39.61 21.214c.153-2.754 2.173-5.141 5.28-5.141 2.965 0 4.908 2.172 4.921 5.141H39.61ZM72.51 17.942c-.792-3.019-3.183-4.99-7.427-4.99-4.436 0-7.58 2.312-7.58 5.748 0 2.754 1.687 4.586 5.369 5.394l3.323.72c1.892.417 2.775 1.25 2.775 2.463 0 1.504-1.624 2.679-4.13 2.679-2.288 0-3.758-.973-4.218-2.88l-3.695.555c.64 3.436 3.529 5.369 7.939 5.369 4.743 0 8.028-2.489 8.028-6 0-2.742-1.764-4.434-5.369-5.256l-3.12-.707c-2.16-.505-3.093-1.225-3.08-2.539-.013-1.49 1.623-2.552 3.797-2.552 2.377 0 3.477 1.301 3.924 2.603l3.465-.607ZM86.263 13.205h-4.027V8.556h-3.823v4.65h-2.876v3.03h2.876v11.458c-.012 3.525 2.71 5.23 5.728 5.167 1.214-.013 2.032-.24 2.48-.404l-.69-3.12c-.257.05-.73.164-1.343.164-1.24 0-2.352-.404-2.352-2.59V16.237h4.026v-3.032ZM98.55 33c5.536 0 9.154-4.005 9.154-10.005 0-6.038-3.618-10.043-9.153-10.043s-9.153 4.005-9.153 10.043c0 6 3.618 10.005 9.153 10.005Zm.014-3.17c-3.618 0-5.306-3.12-5.306-6.847 0-3.714 1.688-6.873 5.306-6.873 3.592 0 5.279 3.159 5.279 6.873 0 3.726-1.687 6.846-5.28 6.846ZM111.176 8.893h1.057V5.525h1.909c.077 0 .149 0 .222-.005l1.841 3.373h1.227l-1.973-3.562c1.112-.375 1.632-1.272 1.632-2.417 0-1.524-.92-2.645-2.966-2.645h-2.949v8.624Zm1.057-4.312V1.196h1.858c1.415 0 1.96.682 1.96 1.718s-.545 1.667-1.943 1.667h-1.875ZM122.84 6.249c0 1.213-.937 1.768-1.687 1.768-.835 0-1.432-.606-1.432-1.55V2.426h-1.005v4.11c0 1.65.886 2.442 2.113 2.442.989 0 1.636-.522 1.943-1.179h.068v1.095h1.006V2.425h-1.006V6.25ZM130.324 3.874c-.315-.918-1.023-1.533-2.318-1.533-1.381 0-2.403.775-2.403 1.87 0 .892.537 1.49 1.738 1.768l1.091.253c.661.152.972.463.972.91 0 .555-.597 1.01-1.534 1.01-.823 0-1.338-.35-1.517-1.044l-.955.236c.235 1.099 1.151 1.684 2.489 1.684 1.521 0 2.556-.821 2.556-1.937 0-.901-.571-1.47-1.738-1.752l-.972-.236c-.775-.189-1.125-.446-1.125-.943 0-.556.597-.96 1.398-.96.878 0 1.24.48 1.415.927l.903-.253ZM136.593 3.874c-.315-.918-1.022-1.533-2.318-1.533-1.38 0-2.403.775-2.403 1.87 0 .892.537 1.49 1.739 1.768l1.09.253c.661.152.972.463.972.91 0 .555-.597 1.01-1.534 1.01-.822 0-1.338-.35-1.517-1.044l-.955.236c.235 1.099 1.151 1.684 2.489 1.684 1.521 0 2.557-.821 2.557-1.937 0-.901-.571-1.47-1.739-1.752l-.971-.236c-.776-.189-1.125-.446-1.125-.943 0-.556.596-.96 1.397-.96.878 0 1.24.48 1.415.927l.903-.253ZM138.227 8.893h1.005V2.425h-1.005v6.468Zm.511-7.546c.392 0 .716-.303.716-.673 0-.37-.324-.674-.716-.674-.392 0-.716.303-.716.674 0 .37.324.673.716.673ZM143 9.045c1.142 0 1.739-.607 1.943-1.028h.051v.876H146V4.632c0-2.055-1.585-2.29-2.42-2.29-.989 0-2.114.336-2.625 1.515l.954.337c.222-.472.746-.977 1.705-.977.924 0 1.38.484 1.38 1.314v.034c0 .48-.494.437-1.687.589-1.215.156-2.54.421-2.54 1.903 0 1.264.989 1.988 2.233 1.988Zm.154-.893c-.802 0-1.381-.354-1.381-1.044 0-.758.699-.994 1.483-1.095.426-.05 1.568-.168 1.738-.37v.909c0 .808-.647 1.6-1.84 1.6Z"/></g><defs><filter id="a" x="0" y="0" width="150" height="41" filterUnits="userSpaceOnUse" color-interpolation-filters="sRGB"><feFlood flood-opacity="0" result="BackgroundImageFix"/><feColorMatrix in="SourceAlpha" values="0 0 0 0 0 0 0 0 0 0 0 0 0 0 0 0 0 0 127 0" result="hardAlpha"/><feOffset dy="4"/><feGaussianBlur stdDeviation="2"/><feComposite in2="hardAlpha" operator="out"/><feColorMatrix values="0 0 0 0 0 0 0 0 0 0 0 0 0 0 0 0 0 0 0.25 0"/><feBlend in2="BackgroundImageFix" result="effect1_dropShadow_28212_210"/><feBlend in="SourceGraphic" in2="effect1_dropShadow_28212_210" result="shape"/></filter></defs></svg>
